world_stage/static/flags/GBR/square.svg

<svg height="96" width="96" xmlns="http://www.w3.org/2000/svg"><path d="m0 0h96v96h-96z" fill="#00247d" stroke-width=".32"/><path d="m0 0v13.57824l34.42368 34.42176-34.42368 34.42176v13.57824h13.57824l34.42176-34.42368 34.42176 34.42368h13.57824v-13.57824l-34.42368-34.42176 34.42368-34.42176v-13.57824h-13.57824l-34.42176 34.42368-34.42176-34.42368z" fill="#fff" stroke-width=".32"/><path d="m0 0v9l23 23h9zm87 0-23 23v9l32-32zm-55 64-32 32h9l23-23zm32 0 32 32v-9l-23-23z" fill="#cf142b" stroke-linecap="round" stroke-linejoin="round" stroke-width=".5"/><path d="m48 0v96m-48-48h96" stroke="#fff" stroke-width="32"/><path d="m48 0v96m-48-48h96" stroke="#cf142b" stroke-width="19.2"/></svg>

<?xml version="1.0" encoding="UTF-8" standalone="no"?>
<svg
   height="96"
   width="96"
   version="1.1"
   id="svg11"
   sodipodi:docname="square.svg"
   inkscape:version="1.4 (e7c3feb1, 2024-10-09)"
   xmlns:inkscape="http://www.inkscape.org/namespaces/inkscape"
   xmlns:sodipodi="http://sodipodi.sourceforge.net/DTD/sodipodi-0.dtd"
   xmlns="http://www.w3.org/2000/svg"
   xmlns:svg="http://www.w3.org/2000/svg">
  <defs
     id="defs11" />
  <sodipodi:namedview
     id="namedview11"
     pagecolor="#ffffff"
     bordercolor="#000000"
     borderopacity="0.25"
     inkscape:showpageshadow="2"
     inkscape:pageopacity="0.0"
     inkscape:pagecheckerboard="0"
     inkscape:deskcolor="#d1d1d1"
     inkscape:current-layer="svg11" />
  <path
     d="M 0,0 H 96 V 96 H 0 Z"
     fill="#00247d"
     id="path1"
     style="stroke-width:0.32" />
  <path
     d="M 0,0 V 13.57824 L 34.42368,48 0,82.42176 V 96 H 13.57824 L 48,61.57632 82.42176,96 H 96 V 82.42176 L 61.57632,48 96,13.57824 V 0 H 82.42176 L 48,34.42368 13.57824,0 Z"
     fill="#ffffff"
     id="path2"
     style="stroke-width:0.32" />
  <path
     d="m 0,0 v 9 l 23,23 h 9 z M 87,0 64,23 v 9 L 96,0 Z M 32,64 0,96 H 9 L 32,73 Z m 32,0 32,32 V 87 L 73,64 Z"
     fill="#cf142b"
     stroke-linecap="round"
     stroke-linejoin="round"
     stroke-width="0.5"
     id="path3" />
  <path
     d="M 48,0 V 96 M 0,48 h 96"
     stroke="#ffffff"
     stroke-width="32"
     id="path4" />
  <path
     d="M 48,0 V 96 M 0,48 h 96"
     stroke="#cf142b"
     stroke-width="19.2"
     id="path5" />
</svg>
